X:4951
L:1/8
M:4/4
K:F
 c/B/ |: AF FG/F/ | EG Gc/B/ | AF FB | Ac cf/c/ | AF FG/F/ | EG Gc | B/A/G/F/ F/E/D/C/ |1 
 DF Fc/B/ :|2 DF Fc |: f>g ag/f/ | eg ce | f>g ag/f/ | eg ga | f>g ag/f/ | eg c>A | 
 B/A/G/F/ F/E/D/C/ |1 DF Fc :|2 DF F ||

